!!!COM: Sounthonevichit, Thongdy
!!!CDT: 1905-1968
!!!OTL: National Anthem, Laos
!!!ENC: Davis, Matthew J.
!!Vocal Line Only
**kern
*clefG2
*k[b-]
*F:
*M2/4
=1-
8c
=2
8.f
16g
8a
8g
=3
8.f
16b-
8a
8b-
=4
8.cc
16dd
8b-
8dd
=5
4.cc
8b-
=6
8.cc
16dd
8cc
8b-
=7
8.a
16g
8f
8g
=8
8a
8cc
8a
16g
16f
=9
4.g
8c
=10
8.f
16g
8a
8g
=11
4.cc
8b-
=12
8.dd
16cc
8b-
8a
=13
4.g
8g
=14
8a
8b-
8cc
8b-
=15
8.a
16g
8f
8g
=16
8a
8cc
8a
8g
=17
4.f
8ff
=18
8.ff
16dd
8cc
8dd
=19
8.ff
16dd
8dd
8gg
=20
8ff
8dd
8cc
8a
=21
4.cc
16a
16g
=22
8.f
16f
8f
8f
=23
8.f
16g
8a
8g
=24
8f
8cc
8cc
8cc
=25
4.cc
16a
16cc
=26
8.dd
16ff
8dd
16cc
16cc
=27
8.a
16dd
8cc
8a
=28
8.g
16f
8d
8c
=29
4.f
==|!
*-
